X: 18224
T: Humours Of Kiltyclogher, The
R: jig
M: 6/8
K: Adorian
|:B|AGE G2E|cGE EFG|D3 D2E|GED D2B|
AGE G2E|cGE EFG|A3 BGE|A3 A2:|
|:B|c2B c2d|ecA ABc|B3 GA/B/c|dBG GAB|
c2B c2d|ecA ABc|BAG GAB|A3 A2:|
|:B|AGE G2E|cGE EFG|D3 D3|D3 D2B|
AGE G2E|cGE EFG|A3 BGE|Ac/A/A A2:|
|:B|(c3 c3|c)BA ABc|B3 GA/B/c|dBG GAB|
c2B c2d|ecA AFD|G3 BAG|A3 A2B|
(c3 c2)d|ecA ABc|B3 GA/B/c|dBG GAB|
c2B c2d|ecA AFD|G3 BAG|Ac/A/A A2||

